X: 1
T: John McNeil's Reel
R: reel
C: Peter Milne (1824-1908)
H: A version of this is also called "Big John MacNeill"
D: De Dannan: Mist Covered Mountain
D: Begley & Cooney: Meitheal
Z: id:hn-reel-510
M: C|
F: http://norbeck.nu/abc/i/hnr5.abc	 20110125
K: A
|: "A"A,2CE FECE | "A"AECE FECE | "A"A,2CE FECE | "F#m"FCEC "E7"B,DCB, |
|  "A"A,2CE FECE | "A"AECE FECE | "D"D2FD "A"CDEC |1 "Bm"DCB,A, "E7"B,CDB, :|2 "Bm"DCB,A, "E7"B,2cd ||
|: "A"eA~A2 eAfA | "A"eA~A2 efga | "A"eA~A2 agfe | "G"dB=GB dGBd |
|  "A"eA~A2 eAfA | "A"eA~A2 efga | agfe "D"fedc |1 "Bm"BAGA "E7"B2cd :|2 "Bm"BAGF "E7"EDCB, |]
